Simply-Purple-Circles/scalable/apps/nomacs.svg

<svg xmlns="http://www.w3.org/2000/svg" width="48" height="48" viewBox="0 0 12.7 12.7"><path fill="#963996" d="M6.344.073a6.29 6.29 0 0 0-6.29 6.29 6.29 6.29 0 0 0 6.29 6.288 6.29 6.29 0 0 0 6.29-6.289 6.29 6.29 0 0 0-6.29-6.29zm-.018.936a5.407 5.407 0 0 1 5.407 5.407 5.407 5.407 0 0 1-5.407 5.407A5.407 5.407 0 0 1 .92 6.416 5.407 5.407 0 0 1 6.326 1.01zM2.947 2.606v1.872h.425V3.075h1.276v-.469h-1.7zm5.105 0v.469h1.276v1.403h.425V2.606H8.052zM7.75 3.624a.202.202 0 0 0-.15.067l-.716.787h-2.45l1.703 2.106v2.105h-.851c-.117 0-.213.106-.213.234 0 .13.096.235.213.235h2.127c.116 0 .212-.106.212-.235 0-.128-.096-.234-.212-.234h-.851V6.584l1.702-2.106h-.779l.415-.456a.252.252 0 0 0 0-.33.201.201 0 0 0-.15-.068zM2.947 8.222v1.872h1.701v-.469H3.372V8.222h-.425zm6.38 0v1.403H8.053v.469h1.7V8.222h-.424z"/></svg>

<?xml version="1.0" encoding="UTF-8" standalone="no"?>
<svg
   xmlns:dc="http://purl.org/dc/elements/1.1/"
   xmlns:cc="http://creativecommons.org/ns#"
   xmlns:rdf="http://www.w3.org/1999/02/22-rdf-syntax-ns#"
   xmlns:svg="http://www.w3.org/2000/svg"
   xmlns="http://www.w3.org/2000/svg"
   xmlns:sodipodi="http://sodipodi.sourceforge.net/DTD/sodipodi-0.dtd"
   xmlns:inkscape="http://www.inkscape.org/namespaces/inkscape"
   width="48"
   height="48"
   viewBox="0 0 12.7 12.7"
   version="1.1"
   id="svg4"
   sodipodi:docname="nomacs.svg"
   inkscape:version="0.92.4 (5da689c313, 2019-01-14)">
  <metadata
     id="metadata10">
    <rdf:RDF>
      <cc:Work
         rdf:about="">
        <dc:format>image/svg+xml</dc:format>
        <dc:type
           rdf:resource="http://purl.org/dc/dcmitype/StillImage" />
        <dc:title></dc:title>
      </cc:Work>
    </rdf:RDF>
  </metadata>
  <defs
     id="defs8" />
  <sodipodi:namedview
     pagecolor="#ffffff"
     bordercolor="#666666"
     borderopacity="1"
     objecttolerance="10"
     gridtolerance="10"
     guidetolerance="10"
     inkscape:pageopacity="0"
     inkscape:pageshadow="2"
     inkscape:window-width="1087"
     inkscape:window-height="480"
     id="namedview6"
     showgrid="false"
     inkscape:zoom="4.9166667"
     inkscape:cx="2.1355932"
     inkscape:cy="24"
     inkscape:window-x="0"
     inkscape:window-y="25"
     inkscape:window-maximized="0"
     inkscape:current-layer="svg4" />
  <path
     d="m 6.344,0.073 a 6.29,6.29 0 0 0 -6.29,6.29 6.29,6.29 0 0 0 6.29,6.288 6.29,6.29 0 0 0 6.29,-6.289 6.29,6.29 0 0 0 -6.29,-6.29 z M 6.326,1.009 A 5.407,5.407 0 0 1 11.733,6.416 5.407,5.407 0 0 1 6.326,11.823 5.407,5.407 0 0 1 0.92,6.416 5.407,5.407 0 0 1 6.326,1.01 Z M 2.947,2.606 V 4.478 H 3.372 V 3.075 H 4.648 V 2.606 h -1.7 z m 5.105,0 V 3.075 H 9.328 V 4.478 H 9.753 V 2.606 Z M 7.75,3.624 A 0.202,0.202 0 0 0 7.6,3.691 L 6.884,4.478 H 4.434 L 6.137,6.584 V 8.689 H 5.286 c -0.117,0 -0.213,0.106 -0.213,0.234 0,0.13 0.096,0.235 0.213,0.235 h 2.127 c 0.116,0 0.212,-0.106 0.212,-0.235 0,-0.128 -0.096,-0.234 -0.212,-0.234 H 6.562 V 6.584 L 8.264,4.478 H 7.485 L 7.9,4.022 A 0.252,0.252 0 0 0 7.9,3.692 0.201,0.201 0 0 0 7.75,3.624 Z M 2.947,8.222 v 1.872 H 4.648 V 9.625 H 3.372 V 8.222 Z m 6.38,0 V 9.625 H 8.053 v 0.469 h 1.7 V 8.222 H 9.329 Z"
     id="path2"
     inkscape:connector-curvature="0"
     style="fill:#963996" />
</svg>
